icons/icn_youtube.svg

<svg width="24" xmlns="http://www.w3.org/2000/svg" height="24" id="screenshot-bfd96ead-884f-806b-8006-9b039afd486e" viewBox="0 0 24 24" xmlns:xlink="http://www.w3.org/1999/xlink" fill="none" version="1.1"><g id="shape-bfd96ead-884f-806b-8006-9b039afd486e"><g class="frame-container-wrapper"><g class="frame-container-blur"><g class="frame-container-shadows"><g fill="none"><g class="fills" id="fills-bfd96ead-884f-806b-8006-9b039afd486e"><rect rx="0" ry="0" x="0" y="0" width="24" height="24" transform="matrix(1, 0, 0, 1, 0, 0)" class="frame-background"/></g><g class="frame-children"><g id="shape-bfd96ead-884f-806b-8006-9b030f120872"><g class="fills" id="fills-bfd96ead-884f-806b-8006-9b030f120872"><rect rx="4" ry="4" x="0" y="0" transform="matrix(1, 0, 0, 1, 0, 0)" width="24" height="24" style="fill: rgb(0, 0, 0); fill-opacity: 1;"/></g></g><g id="shape-bfd96ead-884f-806b-8006-9affaff9c78d"><g class="fills" id="fills-bfd96ead-884f-806b-8006-9affaff9c78d"><path d="M21.005908966064453,7.4289703369140625C20.788867950439453,6.6108551025390625,20.148487091064453,5.9659576416015625,19.334766387939453,5.7473297119140625C17.860889434814453,5.3499908447265625,11.950732231140137,5.3499908447265625,11.950732231140137,5.3499908447265625C11.950732231140137,5.3499908447265625,6.040087699890137,5.3499908447265625,4.565966606140137,5.7473297119140625C3.752978563308716,5.9659576416015625,3.112597703933716,6.6108551025390625,2.894824266433716,7.4289703369140625C2.500048875808716,8.912857055664062,2.500048875808716,12.008071899414062,2.500048875808716,12.008071899414062C2.500048875808716,12.008071899414062,2.500048875808716,15.103408813476562,2.894824266433716,16.586807250976562C3.112597703933716,17.405410766601562,3.752978563308716,18.049819946289062,4.565966606140137,18.268814086914062C6.040087699890137,18.666275024414062,11.950732231140137,18.666275024414062,11.950732231140137,18.666275024414062C11.950732231140137,18.666275024414062,17.860889434814453,18.666275024414062,19.334766387939453,18.268814086914062C20.148487091064453,18.049819946289062,20.788867950439453,17.405410766601562,21.005908966064453,16.586807250976562C21.400928497314453,15.103408813476562,21.400928497314453,12.008071899414062,21.400928497314453,12.008071899414062C21.400928497314453,12.008071899414062,21.400928497314453,8.912857055664062,21.005908966064453,7.4289703369140625" style="fill-rule: nonzero; stroke: none; stroke-width: 0.133333; fill: rgb(255, 255, 255); fill-opacity: 1;"/></g></g><g id="shape-bfd96ead-884f-806b-8006-9affaff9c78e"><g class="fills" id="fills-bfd96ead-884f-806b-8006-9affaff9c78e"><path d="M10.000048637390137,14.620864868164062L10.000048637390137,9.000015258789062L14.940234184265137,11.810440063476562Z" style="fill-rule: nonzero; stroke: none; stroke-width: 0.133333; fill: rgb(23, 23, 23); fill-opacity: 1;"/></g></g></g></g></g></g></g></g></svg>

<svg fill="none" viewBox="0 0 24 24"><g class="frame-container-wrapper"><g class="frame-container-blur"><g class="frame-container-shadows"><g class="fills"><rect width="24" height="24" class="frame-background" rx="0" ry="0"/></g><g class="frame-children"><rect width="24" height="24" fill="#000" class="fills" rx="4" ry="4"/><path fill="#fff" d="M21.006 7.429c-.2171-.8181-.8575-1.463-1.6712-1.6817-1.474-.3973-7.384-.3973-7.384-.3973s-5.9107 0-7.3848.3973c-.813.2187-1.4534.8636-1.6712 1.6817C2.5 8.9129 2.5 12.008 2.5 12.008s0 3.0954.3948 4.5788c.2178.8186.8582 1.463 1.6712 1.682 1.474.3975 7.3847.3975 7.3847.3975s5.9102 0 7.384-.3975c.8138-.219 1.4542-.8634 1.6712-1.682.395-1.4834.395-4.5787.395-4.5787s0-3.0952-.395-4.5791" class="fills"/><path fill="#171717" d="M10 14.6209V9l4.9402 2.8104Z" class="fills"/></g></g></g></g></svg>
